src/actions/22/address-book-new.svg

<svg version="1.1" viewBox="0 0 22 22" xmlns="http://www.w3.org/2000/svg">
 <defs>
  <style id="current-color-scheme" type="text/css">.ColorScheme-Text {
        color:#363636;
      }</style>
 </defs>
 <path class="ColorScheme-Text" d="m7 3c-1.108 0-2 0.892-2 2v12c0 1.108 0.892 2 2 2h10c1.108 0 2-0.892 2-2v-12c0-1.108-0.892-2-2-2h-10zm0 1h1v14h-1c-0.554 0-1-0.446-1-1v-12c0-0.554 0.446-1 1-1zm2 0h8c0.554 0 1 0.446 1 1v12c0 0.554-0.446 1-1 1h-8v-14zm-6 1v3h1v-3h-1zm0 9v3h1v-3h-1z" fill="currentColor"/>
</svg>

<svg xmlns="http://www.w3.org/2000/svg" viewBox="0 0 22 22">
    <path fill="currentColor" d="M7 3c-1.108 0-2 .892-2 2v12c0 1.108.892 2 2 2h10c1.108 0 2-.892 2-2V5c0-1.108-.892-2-2-2H7zm0 1h1v14H7c-.554 0-1-.446-1-1V5c0-.554.446-1 1-1zm2 0h8c.554 0 1 .446 1 1v12c0 .554-.446 1-1 1H9V4zM3 5v3h1V5H3zm0 9v3h1v-3H3z" style="color:#050505;opacity:.7"/>
</svg>
